client/src/assets/icons/Group 77.svg

<svg width="280" height="69" viewBox="0 0 280 69" fill="none" xmlns="http://www.w3.org/2000/svg">
<path d="M34.9274 34.0083L17.4809 19.3791L0.00144958 4.71981V3.23782C0.00144958 0.774181 2.64629 -0.784477 4.79959 0.409924L32.7374 15.8927L45.8003 23.1358L34.9274 34.0083Z" fill="#6EEC83"/>
<path d="M0.000968933 64.8378V63.3575L17.4817 48.6966L34.856 34.1282L45.7163 44.987L32.736 52.1814L4.80212 67.6675C2.64546 68.8618 0.000968933 67.3015 0.000968933 64.8378Z" fill="#DE4551"/>
<path d="M0 63.3577V4.71933L17.4832 19.3784L34.9268 34.0079L34.9629 34.0378L34.8548 34.1282L17.4832 48.6968L0 63.3577Z" fill="black"/>
<path d="M0 63.3577V4.71933L17.4832 19.3784L34.9268 34.0079L34.9629 34.0378L34.8548 34.1282L17.4832 48.6968L0 63.3577Z" fill="#5FD0FA"/>
<path d="M45.7141 44.9875L34.8565 34.1288L34.9621 34.0379L34.9281 34.0085L45.8008 23.1354L60.3694 31.2102C62.5907 32.4419 62.5907 35.6358 60.3694 36.866L45.7141 44.9875Z" fill="#F6C644"/>
<path d="M34.8551 34.1284L34.8335 34.1037L34.9268 34.0086L34.9627 34.0383L34.8551 34.1284Z" fill="black"/>
<path d="M84.9125 51.3241V46.9516H96.2088V57.2912C95.1109 58.3544 93.5199 59.2892 91.4357 60.0974C89.3514 60.9072 87.2433 61.3105 85.1074 61.3105C82.3907 61.3105 80.0241 60.7414 78.0075 59.6018C75.9869 58.4638 74.4714 56.8346 73.4531 54.715C72.4389 52.5965 71.9337 50.2923 71.9337 47.8004C71.9337 45.0976 72.4985 42.6948 73.6321 40.5934C74.7657 38.4925 76.4244 36.8824 78.608 35.7599C80.2707 34.8984 82.343 34.4668 84.825 34.4668C88.0468 34.4668 90.5646 35.1438 92.3744 36.4946C94.1881 37.8469 95.3536 39.7148 95.8707 42.0989L90.668 43.073C90.2981 41.799 89.6139 40.7919 88.6036 40.0541C87.5933 39.3162 86.3325 38.9475 84.825 38.9475C82.5339 38.9475 80.7122 39.6726 79.3598 41.1252C78.0075 42.5774 77.3352 44.7317 77.3352 47.588C77.3352 50.669 78.0194 52.9796 79.3876 54.5209C80.7559 56.061 82.5498 56.8314 84.7693 56.8314C85.8671 56.8314 86.9689 56.6158 88.0707 56.1843C89.1764 55.7547 90.1231 55.2324 90.9146 54.6179V51.3241H84.9125Z" fill="black"/>
<path d="M104.953 51.4668C104.953 53.3319 105.398 54.7608 106.284 55.7518C107.169 56.7429 108.261 57.2388 109.558 57.2388C110.86 57.2388 111.947 56.7429 112.824 55.7518C113.706 54.7608 114.143 53.3196 114.143 51.431C114.143 49.5894 113.706 48.1729 112.824 47.1819C111.947 46.1908 110.86 45.6937 109.558 45.6937C108.261 45.6937 107.169 46.1908 106.284 47.1819C105.398 48.1729 104.953 49.6018 104.953 51.4668ZM99.8538 51.2012C99.8538 49.5486 100.262 47.9497 101.077 46.4017C101.893 44.8559 103.046 43.6754 104.537 42.861C106.032 42.0463 107.7 41.6402 109.542 41.6402C112.384 41.6402 114.719 42.5624 116.536 44.4102C118.352 46.258 119.262 48.5918 119.262 51.4137C119.262 54.2591 118.344 56.6164 116.511 58.4877C114.674 60.3589 112.363 61.2939 109.575 61.2939C107.853 61.2939 106.209 60.9047 104.644 60.1246C103.079 59.3461 101.893 58.2047 101.077 56.6992C100.262 55.1937 99.8538 53.3616 99.8538 51.2012Z" fill="black"/>
<path d="M127.105 51.4668C127.105 53.3318 127.551 54.7606 128.436 55.7519C129.321 56.7429 130.411 57.2386 131.708 57.2386C133.01 57.2386 134.1 56.7429 134.976 55.7519C135.857 54.7606 136.295 53.3194 136.295 51.4307C136.295 49.5892 135.857 48.1731 134.976 47.1817C134.1 46.1908 133.01 45.6934 131.708 45.6934C130.411 45.6934 129.321 46.1908 128.436 47.1817C127.551 48.1731 127.105 49.6019 127.105 51.4668ZM122.007 51.2009C122.007 49.5487 122.416 47.9493 123.228 46.4018C124.045 44.8556 125.198 43.6753 126.692 42.8609C128.185 42.0461 129.853 41.6398 131.691 41.6398C134.538 41.6398 136.87 42.5622 138.686 44.4101C140.508 46.258 141.414 48.5918 141.414 51.4137C141.414 54.2589 140.495 56.6165 138.661 58.4878C136.827 60.3591 134.517 61.2939 131.73 61.2939C130.006 61.2939 128.36 60.9046 126.798 60.1243C125.232 59.346 124.045 58.2049 123.228 56.6991C122.416 55.1937 122.007 53.3616 122.007 51.2009Z" fill="black"/>
<path d="M149.293 51.0781C149.293 53.0731 149.679 54.5331 150.45 55.46C151.226 56.3873 152.178 56.8499 153.313 56.8499C154.528 56.8499 155.554 56.3746 156.391 55.424C157.233 54.4735 157.65 53.0665 157.65 51.2018C157.65 49.2537 157.251 47.8077 156.448 46.8633C155.646 45.9193 154.629 45.4471 153.401 45.4471C152.209 45.4471 151.226 45.9097 150.45 46.837C149.679 47.7639 149.293 49.177 149.293 51.0781ZM144.851 62.1091L150.534 62.8001C150.626 63.4612 150.845 63.9146 151.187 64.1632C151.66 64.5166 152.401 64.6946 153.419 64.6946C154.716 64.6946 155.69 64.4991 156.339 64.1097C156.777 63.8506 157.106 63.4314 157.334 62.8531C157.487 62.4405 157.562 61.6776 157.562 60.5692V57.8237C156.076 59.8546 154.199 60.8691 151.932 60.8691C149.407 60.8691 147.403 59.8015 145.93 57.6645C144.772 55.976 144.194 53.875 144.194 51.3609C144.194 48.2094 144.952 45.8005 146.469 44.137C147.986 42.4723 149.872 41.6405 152.125 41.6405C154.453 41.6405 156.369 42.6612 157.882 44.7031V42.064H162.538V58.9399C162.538 61.1585 162.354 62.8172 161.99 63.9146C161.622 65.0133 161.109 65.8749 160.447 66.5001C159.785 67.1254 158.904 67.6164 157.803 67.9698C156.698 68.3245 155.304 68.5012 153.612 68.5012C150.424 68.5012 148.166 67.9558 146.833 66.8627C145.5 65.7719 144.829 64.3868 144.829 62.7106C144.829 62.5449 144.838 62.345 144.851 62.1091Z" fill="black"/>
<path d="M167.461 60.8689V34.912H172.435V60.8689H167.461Z" fill="black"/>
<path d="M188.71 49.8554C188.673 48.4154 188.303 47.3208 187.594 46.5704C186.884 45.8218 186.024 45.4466 185.008 45.4466C183.924 45.4466 183.027 45.842 182.318 46.6331C181.608 47.4243 181.261 48.4982 181.27 49.8554H188.71ZM188.426 54.8842L193.382 55.7161C192.746 57.534 191.739 58.9178 190.362 59.8681C188.989 60.8185 187.269 61.2939 185.205 61.2939C181.933 61.2939 179.513 60.226 177.943 58.0891C176.703 56.3773 176.085 54.217 176.085 51.6075C176.085 48.4918 176.9 46.0515 178.529 44.2867C180.158 42.5218 182.217 41.64 184.706 41.64C187.507 41.64 189.712 42.5625 191.332 44.4102C192.947 46.2579 193.721 49.0876 193.647 52.9006H181.183C181.22 54.3763 181.622 55.5239 182.386 56.3443C183.155 57.1652 184.111 57.5748 185.255 57.5748C186.033 57.5748 186.692 57.3638 187.223 56.9387C187.754 56.5132 188.152 55.8286 188.426 54.8842Z" fill="black"/>
<path d="M213.054 39.3032V46.6681H215.924C217.991 46.6681 219.369 46.5336 220.067 46.2614C220.761 45.9897 221.311 45.5643 221.704 44.9859C222.101 44.4075 222.297 43.7353 222.297 42.9679C222.297 42.0235 222.019 41.2451 221.465 40.6308C220.91 40.0161 220.206 39.6333 219.359 39.4797C218.733 39.3611 217.474 39.3032 215.589 39.3032H213.054ZM207.815 60.8691V34.9122H216.226C219.412 34.9122 221.488 35.0419 222.46 35.3012C223.943 35.6906 225.191 36.5379 226.191 37.8416C227.196 39.1472 227.698 40.8308 227.698 42.8976C227.698 44.4903 227.411 45.8303 226.832 46.9168C226.254 48.0033 225.517 48.8549 224.627 49.4759C223.737 50.095 222.828 50.5045 221.909 50.706C220.656 50.9533 218.848 51.0782 216.475 51.0782H213.054V60.8691H207.815Z" fill="black"/>
<path d="M231.967 60.8691V34.9119H236.943V60.8691H231.967Z" fill="black"/>
<path d="M252.417 51.8392C251.78 52.0521 250.771 52.3052 249.388 52.6005C248.006 52.8959 247.106 53.1853 246.678 53.4682C246.032 53.9277 245.704 54.5125 245.704 55.2205C245.704 55.9182 245.962 56.5198 246.484 57.0265C247.006 57.5342 247.668 57.7878 248.468 57.7878C249.363 57.7878 250.224 57.494 251.034 56.9027C251.636 56.4542 252.034 55.9053 252.223 55.2568C252.352 54.8312 252.417 54.0231 252.417 52.8302V51.8392ZM245.758 47.8011L241.243 46.9866C241.751 45.1686 242.626 43.8241 243.864 42.9504C245.102 42.0762 246.947 41.6401 249.388 41.6401C251.606 41.6401 253.262 41.9027 254.346 42.4283C255.43 42.9534 256.196 43.6192 256.638 44.4292C257.081 45.2373 257.304 46.7211 257.304 48.8816L257.25 54.689C257.25 56.3418 257.329 57.5611 257.488 58.3457C257.648 59.1304 257.946 59.9718 258.384 60.8688H253.461C253.331 60.5391 253.172 60.0483 252.983 59.3994C252.899 59.1041 252.839 58.9101 252.804 58.8147C251.959 59.6416 251.049 60.2607 250.079 60.6749C249.11 61.0876 248.081 61.2939 246.982 61.2939C245.042 61.2939 243.516 60.7689 242.402 59.7182C241.288 58.668 240.731 57.3388 240.731 55.7352C240.731 54.6721 240.985 53.7248 241.492 52.8929C241.999 52.0595 242.71 51.4235 243.625 50.9795C244.54 50.5369 245.858 50.1511 247.583 49.8194C249.91 49.3833 251.521 48.9771 252.417 48.5987V48.1029C252.417 47.1462 252.183 46.4645 251.71 46.0582C251.238 45.65 250.343 45.4471 249.035 45.4471C248.15 45.4471 247.459 45.6206 246.962 45.9692C246.464 46.3178 246.067 46.9274 245.758 47.8011Z" fill="black"/>
<path d="M259.858 42.064H265.152L269.65 55.4163L274.042 42.064H279.193L272.552 60.1609L271.364 63.4373C270.93 64.5348 270.512 65.3728 270.12 65.9511C269.722 66.5295 269.268 66.9987 268.753 67.3583C268.238 67.7194 267.61 67.9994 266.861 68.1993C266.111 68.4013 265.264 68.5012 264.316 68.5012C263.362 68.5012 262.423 68.4013 261.505 68.1993L261.062 64.3038C261.842 64.4583 262.541 64.5348 263.168 64.5348C264.326 64.5348 265.183 64.1957 265.733 63.5158C266.289 62.837 266.713 61.9725 267.008 60.9224L259.858 42.064Z" fill="black"/>
<path d="M79.3985 18.4095V16.2678L85.7025 16.2553V23.0043C84.736 23.9454 83.7381 24.6536 82.7051 25.1287C81.672 25.6041 80.6115 25.8401 79.5237 25.8401C78.0719 25.8401 76.7728 25.4773 75.6341 24.7503C74.4954 24.0236 73.5914 22.9604 72.9301 21.5646C72.2649 20.1684 71.9323 18.4909 71.9323 16.5335C71.9323 14.5516 72.2649 12.8239 72.934 11.3545C73.6032 9.88322 74.4797 8.79852 75.5597 8.1012C76.6397 7.40232 77.9233 7.05367 79.3985 7.05367C80.4903 7.05367 81.4411 7.25558 82.259 7.6602C83.0768 8.0652 83.7498 8.63885 84.2781 9.38156C84.8064 10.1243 85.2055 11.1448 85.4677 12.4408L83.6951 13.0348C83.4564 12.0112 83.1551 11.245 82.7951 10.7371C82.4272 10.2303 81.9498 9.83195 81.355 9.54239C80.7603 9.25321 80.095 9.10961 79.3476 9.10961C78.2676 9.10961 77.3363 9.37061 76.5576 9.89575C75.7788 10.4213 75.1489 11.2372 74.6754 12.3442C74.198 13.4524 73.9632 14.8032 73.9632 16.3978C73.9632 18.827 74.4719 20.6466 75.4854 21.8569C76.5028 23.0684 77.8215 23.6734 79.4494 23.6734C80.2242 23.6734 81.0185 23.4871 81.8324 23.117C82.6463 22.7448 83.292 22.3022 83.7733 21.7912V18.4095H79.3985Z" fill="black"/>
<path d="M88.6131 25.531V7.37622H99.3747V9.51815H90.5847V15.0661H98.8189V17.2096H90.5847V23.3891H99.7227V25.531H88.6131Z" fill="black"/>
<path d="M106.262 25.5295V9.5168H101.36V7.3752H113.16V9.5168H108.233V25.5295H106.262Z" fill="black"/>
<path d="M120.948 25.531V7.37625H122.919V25.531H120.948Z" fill="black"/>
<path d="M130.174 25.531V9.51814H125.273V7.37652H137.074V9.51814H132.144V25.531H130.174Z" fill="black"/>
<path d="M145.968 16.7198C145.968 18.9588 146.461 20.6971 147.45 21.9321C148.435 23.1688 149.633 23.7845 151.045 23.7845C152.492 23.7845 153.703 23.1623 154.679 21.9133C155.66 20.6657 156.148 18.832 156.148 16.4104C156.148 14.8485 155.895 13.4528 155.394 12.2208C155.002 11.2782 154.422 10.5244 153.642 9.95873C152.862 9.39266 152.008 9.10985 151.084 9.10985C149.594 9.10985 148.374 9.72864 147.411 10.9684C146.448 12.2082 145.968 14.1247 145.968 16.7198ZM143.938 16.6888C143.938 13.5918 144.617 11.2124 145.981 9.54909C147.341 7.88574 149.04 7.05386 151.071 7.05386C152.383 7.05386 153.581 7.4247 154.662 8.16857C155.743 8.91113 156.601 9.99141 157.233 11.4064C157.865 12.8226 158.179 14.5095 158.179 16.4653C158.179 19.1571 157.569 21.349 156.348 23.042C155.002 24.9084 153.237 25.8401 151.058 25.8401C148.862 25.8401 147.097 24.8836 145.755 22.967C144.543 21.2331 143.938 19.1414 143.938 16.6888Z" fill="black"/>
<path d="M160.617 25.5295V7.37488H162.635L170.466 21.6574V7.37488H172.346V25.5295H170.328L162.515 11.244V25.5295H160.617Z" fill="black"/>
</svg>

<svg xmlns="http://www.w3.org/2000/svg" width="280" height="69" fill="none" viewBox="0 0 280 69">
  <path fill="#6EEC83" d="M34.927 34.008 17.481 19.38 0 4.72V3.239C.001.774 2.646-.784 4.8.41l27.937 15.483L45.8 23.136 34.927 34.008Z"/>
  <path fill="#DE4551" d="M.001 64.838v-1.48l17.48-14.661 17.375-14.569 10.86 10.859-12.98 7.194L4.802 67.668C2.645 68.862.001 67.3.001 64.838Z"/>
  <path fill="#000" d="M0 63.358V4.719l17.483 14.66 17.444 14.629.036.03-.108.09-17.372 14.569L0 63.357Z"/>
  <path fill="#5FD0FA" d="M0 63.358V4.719l17.483 14.66 17.444 14.629.036.03-.108.09-17.372 14.569L0 63.357Z"/>
  <path fill="#F6C644" d="M45.714 44.987 34.856 34.13l.106-.091-.034-.03 10.873-10.873 14.568 8.075c2.222 1.232 2.222 4.426 0 5.656l-14.655 8.121Z"/>
  <path fill="#000" d="m34.855 34.128-.021-.024.093-.095.036.03-.108.09Zm50.057 17.196v-4.372H96.21v10.34c-1.098 1.062-2.69 1.997-4.773 2.805-2.085.81-4.193 1.213-6.329 1.213-2.716 0-5.083-.569-7.1-1.708-2.02-1.138-3.536-2.767-4.554-4.887-1.014-2.119-1.52-4.423-1.52-6.915 0-2.702.566-5.105 1.7-7.207 1.133-2.1 2.791-3.71 4.975-4.833 1.663-.862 3.735-1.293 6.217-1.293 3.222 0 5.74.677 7.55 2.028 1.813 1.352 2.979 3.22 3.496 5.604l-5.203.974c-.37-1.274-1.054-2.281-2.064-3.019s-2.272-1.107-3.779-1.107c-2.291 0-4.113.726-5.465 2.178-1.353 1.452-2.025 3.607-2.025 6.463 0 3.081.684 5.392 2.053 6.933 1.368 1.54 3.162 2.31 5.381 2.31 1.098 0 2.2-.215 3.302-.647 1.105-.43 2.052-.952 2.844-1.566v-3.294h-6.003Zm20.041.143c0 1.865.445 3.294 1.331 4.285.885.99 1.977 1.487 3.274 1.487 1.302 0 2.389-.496 3.266-1.487.882-.991 1.319-2.432 1.319-4.321 0-1.842-.437-3.258-1.319-4.25-.877-.99-1.964-1.487-3.266-1.487-1.297 0-2.389.497-3.274 1.488-.886.99-1.331 2.42-1.331 4.285Zm-5.1-.266c0-1.652.409-3.251 1.224-4.8.816-1.545 1.969-2.726 3.46-3.54 1.495-.815 3.163-1.22 5.005-1.22 2.842 0 5.177.921 6.994 2.77 1.816 1.847 2.726 4.18 2.726 7.003 0 2.845-.918 5.202-2.751 7.074-1.837 1.87-4.148 2.806-6.936 2.806-1.722 0-3.366-.39-4.931-1.17-1.565-.778-2.751-1.92-3.567-3.425-.815-1.505-1.223-3.337-1.223-5.498Zm27.252.266c0 1.865.446 3.294 1.331 4.285.885.99 1.975 1.487 3.272 1.487 1.302 0 2.392-.496 3.268-1.487.881-.991 1.319-2.433 1.319-4.321 0-1.842-.438-3.258-1.319-4.25-.876-.99-1.966-1.488-3.268-1.488-1.297 0-2.387.498-3.272 1.489-.885.991-1.331 2.42-1.331 4.285Zm-5.098-.266c0-1.652.409-3.252 1.221-4.8.817-1.545 1.97-2.726 3.464-3.54 1.493-.815 3.161-1.221 4.999-1.221 2.847 0 5.179.922 6.995 2.77 1.822 1.848 2.728 4.182 2.728 7.004 0 2.845-.919 5.203-2.753 7.074-1.834 1.871-4.144 2.806-6.931 2.806a10.9 10.9 0 0 1-4.932-1.17c-1.566-.778-2.753-1.92-3.57-3.425-.812-1.505-1.221-3.337-1.221-5.498Zm27.286-.123c0 1.995.386 3.455 1.157 4.382.776.927 1.728 1.39 2.863 1.39 1.215 0 2.241-.475 3.078-1.426.842-.95 1.259-2.358 1.259-4.222 0-1.948-.399-3.394-1.202-4.339-.802-.944-1.819-1.416-3.047-1.416-1.192 0-2.175.463-2.951 1.39-.771.927-1.157 2.34-1.157 4.241Zm-4.442 11.031 5.683.691c.092.661.311 1.115.653 1.363.473.354 1.214.532 2.232.532 1.297 0 2.271-.196 2.92-.585.438-.26.767-.679.995-1.257.153-.413.228-1.175.228-2.284v-2.745c-1.486 2.03-3.363 3.045-5.63 3.045-2.525 0-4.529-1.068-6.002-3.205-1.158-1.688-1.736-3.789-1.736-6.303 0-3.152.758-5.56 2.275-7.224 1.517-1.665 3.403-2.496 5.656-2.496 2.328 0 4.244 1.02 5.757 3.062v-2.639h4.656V58.94c0 2.218-.184 3.877-.548 4.975-.368 1.098-.881 1.96-1.543 2.585-.662.625-1.543 1.116-2.644 1.47-1.105.355-2.499.531-4.191.531-3.188 0-5.446-.545-6.779-1.638-1.333-1.091-2.004-2.476-2.004-4.152 0-.166.009-.366.022-.602Zm22.61-1.24V34.912h4.974v25.957h-4.974Zm21.249-11.014c-.037-1.44-.407-2.534-1.116-3.285-.71-.748-1.57-1.123-2.586-1.123-1.084 0-1.981.395-2.69 1.186-.71.791-1.057 1.865-1.048 3.222h7.44Zm-.284 5.03 4.956.831c-.636 1.818-1.643 3.202-3.02 4.152-1.373.95-3.093 1.426-5.157 1.426-3.272 0-5.692-1.068-7.262-3.205-1.24-1.712-1.858-3.872-1.858-6.481 0-3.116.815-5.556 2.444-7.321 1.629-1.765 3.688-2.647 6.177-2.647 2.801 0 5.006.922 6.626 2.77 1.615 1.848 2.389 4.678 2.315 8.49h-12.464c.037 1.476.439 2.624 1.203 3.444.769.821 1.725 1.23 2.869 1.23.778 0 1.437-.21 1.968-.635.531-.426.929-1.11 1.203-2.055Zm24.628-15.582v7.365h2.87c2.067 0 3.445-.134 4.143-.407.694-.271 1.244-.697 1.637-1.275.397-.578.593-1.25.593-2.018 0-.945-.278-1.723-.832-2.337-.555-.615-1.259-.998-2.106-1.151-.626-.119-1.885-.177-3.77-.177h-2.535Zm-5.239 21.566V34.912h8.411c3.186 0 5.262.13 6.234.39 1.483.389 2.731 1.236 3.731 2.54 1.005 1.305 1.507 2.989 1.507 5.056 0 1.592-.287 2.932-.866 4.019-.578 1.086-1.315 1.938-2.205 2.559-.89.619-1.799 1.029-2.718 1.23-1.253.247-3.061.372-5.434.372h-3.421v9.791h-5.239Zm24.152.001V34.911h4.976v25.957h-4.976Zm20.45-9.03c-.637.212-1.646.465-3.029.76-1.382.296-2.282.585-2.71.868-.646.46-.974 1.044-.974 1.752 0 .698.258 1.3.78 1.806.522.508 1.184.762 1.984.762.895 0 1.756-.294 2.566-.885.602-.449 1-.998 1.189-1.646.129-.426.194-1.234.194-2.427v-.99Zm-6.659-4.039-4.515-.814c.507-1.818 1.383-3.163 2.621-4.037 1.238-.874 3.083-1.31 5.524-1.31 2.218 0 3.874.263 4.958.788s1.85 1.191 2.292 2.001c.443.808.666 2.292.666 4.453l-.054 5.807c0 1.653.079 2.872.238 3.657.16.784.458 1.626.896 2.523h-4.923c-.13-.33-.289-.82-.478-1.47a10.01 10.01 0 0 0-.179-.584c-.845.827-1.755 1.446-2.725 1.86a7.809 7.809 0 0 1-3.097.619c-1.94 0-3.466-.525-4.58-1.576-1.114-1.05-1.671-2.38-1.671-3.983 0-1.063.254-2.01.761-2.842.507-.834 1.218-1.47 2.133-1.913.915-.443 2.233-.829 3.958-1.16 2.327-.437 3.938-.843 4.834-1.221v-.496c0-.957-.234-1.639-.707-2.045-.472-.408-1.367-.61-2.675-.61-.885 0-1.576.173-2.073.521-.498.349-.895.958-1.204 1.832Zm14.1-5.737h5.294l4.498 13.352 4.392-13.352h5.151l-6.641 18.097-1.188 3.276c-.434 1.098-.852 1.936-1.244 2.514a5.467 5.467 0 0 1-1.367 1.407c-.515.361-1.143.641-1.892.841-.75.202-1.597.302-2.545.302-.954 0-1.893-.1-2.811-.302l-.443-3.895c.78.154 1.479.23 2.106.23 1.158 0 2.015-.338 2.565-1.018.556-.679.98-1.544 1.275-2.594l-7.15-18.858ZM79.398 18.41v-2.142l6.305-.013v6.75c-.967.94-1.965 1.649-2.998 2.124a7.532 7.532 0 0 1-3.181.711c-1.452 0-2.751-.363-3.89-1.09-1.139-.726-2.043-1.79-2.704-3.185-.665-1.397-.998-3.074-.998-5.032 0-1.981.333-3.71 1.002-5.179.67-1.47 1.546-2.555 2.626-3.253 1.08-.699 2.363-1.047 3.838-1.047 1.092 0 2.043.202 2.861.606.818.405 1.49.979 2.02 1.722.527.742.927 1.763 1.189 3.059l-1.773.594c-.239-1.024-.54-1.79-.9-2.298a3.798 3.798 0 0 0-1.44-1.195c-.595-.289-1.26-.432-2.007-.432-1.08 0-2.012.26-2.79.786-.78.525-1.41 1.341-1.883 2.448-.477 1.108-.712 2.46-.712 4.054 0 2.429.509 4.249 1.522 5.459 1.018 1.211 2.337 1.816 3.964 1.816.775 0 1.57-.186 2.383-.556.814-.372 1.46-.815 1.941-1.326V18.41H79.4Zm9.215 7.121V7.376h10.762v2.142h-8.79v5.548h8.234v2.144h-8.234v6.18h9.138v2.141h-11.11Zm17.649-.001V9.516h-4.902V7.375h11.8v2.142h-4.927v16.012h-1.971Zm14.686.001V7.376h1.971v18.155h-1.971Zm9.226 0V9.518h-4.901V7.377h11.801v2.141h-4.93v16.013h-1.97Zm15.794-8.811c0 2.239.493 3.977 1.482 5.212.985 1.237 2.183 1.853 3.595 1.853 1.447 0 2.658-.623 3.634-1.872.981-1.247 1.469-3.081 1.469-5.503 0-1.562-.253-2.957-.754-4.19-.392-.942-.972-1.696-1.752-2.261-.78-.566-1.634-.85-2.558-.85-1.49 0-2.71.62-3.673 1.86-.963 1.24-1.443 3.156-1.443 5.75Zm-2.03-.031c0-3.097.679-5.477 2.043-7.14 1.36-1.663 3.059-2.495 5.09-2.495 1.312 0 2.51.37 3.591 1.115 1.081.742 1.939 1.822 2.571 3.237.632 1.417.946 3.103.946 5.06 0 2.691-.61 4.883-1.831 6.576-1.346 1.866-3.111 2.798-5.29 2.798-2.196 0-3.961-.956-5.303-2.873-1.212-1.734-1.817-3.826-1.817-6.278Zm16.679 8.841V7.374h2.018l7.831 14.282V7.375h1.88v18.154h-2.017l-7.814-14.285v14.285h-1.898Z"/>
</svg>
